X: 52
T: Upperchurch Polka #1
B:Ceol Rince na hE/ireann 4, no. 85
Z:Paul de Grae
D:Billy Clifford Trio on their album of the "Music ofSliabh Luachra" series
D: "Rushy Mountain"
R:polka
M:2/4
L:1/8
K:G
B2 BA|AG G2|FG AB|ed d2|c2 cB|BA A2|FD EF|1ED D2:|2AG G2||
dB (3BAB|dB (3BAB|dB gB|dc c2|cA (3ABA| cA (3ABA|1dc BA|GF ED:|2FD EF|AG G2||
%%sep 1 1 500
